assets/svg/logo/logo_button.svg

<svg width="50" height="50" viewBox="0 0 50 50" fill="none" xmlns="http://www.w3.org/2000/svg">
<g clip-path="url(#clip0_53063_157115)">
<path d="M4.41113 35.6494C-1.47038 29.7679 -1.47038 20.2321 4.41113 14.3506L14.3506 4.41113C20.2321 -1.47038 29.7679 -1.47038 35.6494 4.41113L45.5889 14.3506C51.4704 20.2321 51.4704 29.7679 45.5889 35.6494L35.6494 45.5889C29.7679 51.4704 20.2321 51.4704 14.3506 45.5889L4.41113 35.6494Z" fill="#0166FF"/>
<path d="M24.7995 9.01484L24.7961 9V9.02969L22.5281 18.9007L24.7961 23.7856V23.8002L24.7995 23.7929L24.8029 23.8002V23.7856L27.0709 18.9007L24.8029 9.02969V9L24.7995 9.01484Z" fill="white"/>
<path d="M24.7057 40.9852L24.7091 41V40.9703L26.9771 31.0993L24.7091 26.2144V26.1998L24.7057 26.2071L24.7023 26.1998V26.2144L22.4343 31.0993L24.7023 40.9703V41L24.7057 40.9852Z" fill="white"/>
<path d="M38.4829 16.6748L38.4964 16.6615L38.4648 16.681L28.8574 19.9514L25.8861 24.4417L25.8717 24.4506L25.881 24.4495L25.8753 24.4581L25.8913 24.4483L31.2482 23.8003L38.47 16.6875L38.5 16.669L38.4829 16.6748Z" fill="white"/>
<path d="M11.0164 33.3258L11.0036 33.3383L11.0333 33.32L20.6426 30.0489L23.6144 25.5578L23.6283 25.5492L23.6194 25.5503L23.6247 25.5422L23.6098 25.5515L18.2518 26.1995L11.0287 33.3137L11 33.3313L11.0164 33.3258Z" fill="white"/>
<path d="M11.0478 16.6218L11.0339 16.617L11.0582 16.6321L18.2577 23.7786L23.6163 24.448L23.628 24.4553L23.6238 24.4489L23.6316 24.4499L23.6195 24.4424L20.6636 19.937L11.0614 16.6265L11.0376 16.6116L11.0478 16.6218Z" fill="white"/>
<path d="M38.4532 33.38L38.4675 33.3849L38.4426 33.3694L31.2434 26.2232L25.8852 25.5539L25.8734 25.5466L25.8776 25.5529L25.8695 25.5519L25.8821 25.5597L28.8378 30.0649L38.4394 33.3752L38.4636 33.3902L38.4532 33.38Z" fill="white"/>
</g>
<defs>
<clipPath id="clip0_53063_157115">
<rect width="50" height="50" fill="white"/>
</clipPath>
</defs>
</svg>

<svg xmlns="http://www.w3.org/2000/svg" width="50" height="50" fill="none"><g clip-path="url(#a)"><path fill="#0166FF" d="M4.411 35.65c-5.881-5.882-5.881-15.418 0-21.3l9.94-9.939c5.881-5.881 15.417-5.881 21.298 0l9.94 9.94c5.881 5.881 5.881 15.417 0 21.298l-9.94 9.94c-5.881 5.881-15.417 5.881-21.298 0z"/><path fill="#fff" d="M24.8 9.015 24.795 9v.03l-2.268 9.87 2.268 4.886v.014l.003-.007.004.007v-.014L27.07 18.9 24.803 9.03V9zM24.706 40.985l.003.015v-.03l2.268-9.87-2.268-4.886V26.2l-.003.007-.004-.007v.014L22.434 31.1l2.268 9.871V41zM38.483 16.675l.013-.014-.031.02-9.608 3.27-2.97 4.49-.015.01.009-.002-.006.01.016-.01 5.357-.649 7.222-7.113.03-.018zM11.016 33.326l-.012.012.03-.018 9.609-3.271 2.971-4.491.014-.009-.009.001.006-.008-.015.01-5.358.648-7.223 7.114-.029.017zM11.048 16.622l-.014-.005.024.015 7.2 7.147 5.358.669.012.007-.004-.006h.008l-.013-.007-2.955-4.505-9.603-3.31-.023-.015zM38.453 33.38l.014.005-.024-.016-7.2-7.146-5.358-.67-.012-.006.005.006-.009-.001.013.008 2.956 4.505 9.601 3.31.025.015z"/></g><defs><clipPath id="a"><path fill="#fff" d="M0 0h50v50H0z"/></clipPath></defs></svg>
